images/icon-folder.svg

<svg enable-background="new 0 0 80 61.1" viewBox="0 0 80 61.1" xmlns="http://www.w3.org/2000/svg"><path d="m0 61.1h80v-51.5h-80zm33.6-37.4 13.4 15.1-7.5-1.2 3.1 8.6-1.6.6-3.1-8.6-4.9 5.7zm-33.6-23.7v8.2h80v-8.2zm77 5.5-.6.6-1.4-1.3-1.4 1.4-.6-.7 1.4-1.4-1.4-1.3.6-.6 1.4 1.3 1.4-1.4.6.7-1.4 1.4z" fill="#ef6c00"/></svg>

<?xml version="1.0" encoding="utf-8"?>
<!-- Generator: Adobe Illustrator 19.2.0, SVG Export Plug-In . SVG Version: 6.00 Build 0)  -->
<svg version="1.1" id="Layer_1" xmlns="http://www.w3.org/2000/svg" xmlns:xlink="http://www.w3.org/1999/xlink" x="0px" y="0px"
	 viewBox="0 0 80 61.1" style="enable-background:new 0 0 80 61.1;" xml:space="preserve">
<style type="text/css">
	.st0{fill:#EF6C00;}
</style>
<title>icon-folder</title>
<path class="st0" d="M0,61.1h80V9.6H0V61.1z M33.6,23.7L47,38.8l-7.5-1.2l3.1,8.6L41,46.8l-3.1-8.6L33,43.9L33.6,23.7z M0,0v8.2h80
	V0H0z M77,5.5l-0.6,0.6L75,4.8l-1.4,1.4L73,5.5l1.4-1.4L73,2.8l0.6-0.6L75,3.5l1.4-1.4L77,2.8l-1.4,1.4L77,5.5z"/>
</svg>
